packages/foundations/assets/icons/functional/images/human/restricted_mobility_toilet_20.svg

<svg width="20" height="20" viewBox="0 0 20 20" fill="none" xmlns="http://www.w3.org/2000/svg">
<g clip-path="url(#clip0_185_1155)">
<path fill-rule="evenodd" clip-rule="evenodd" d="M4.09349 12.212C4.50075 12.5187 4.63799 13.1514 4.29082 13.6124C4.09654 13.8704 3.99036 14.1825 3.99036 14.5133C3.99036 15.3417 4.66193 16.0133 5.49036 16.0133C5.77148 16.0133 6.09452 15.9423 6.40627 15.7013C6.84327 15.3636 7.4713 15.4441 7.80902 15.8811C8.14674 16.3181 8.06627 16.9461 7.62928 17.2838C7.02134 17.7536 6.27426 18.0133 5.49036 18.0133C3.55736 18.0133 1.99036 16.4463 1.99036 14.5133C1.99036 13.7447 2.23995 13.0112 2.69312 12.4094C3.02533 11.9682 3.6523 11.8798 4.09349 12.212ZM6.94449 10.197C7.20376 10.9681 7.46112 11.7402 7.71657 12.5133H8.83641C9.58313 12.5133 10.33 12.9253 10.6747 13.7254C11.0898 14.689 11.5032 15.6536 11.915 16.6194C12.1325 17.127 11.8974 17.7149 11.3897 17.9324C10.9184 18.1344 10.303 17.9324 10.0767 17.4072C9.66143 16.4438 9.24801 15.4792 8.83641 14.5133H7.71657C6.90951 14.5133 6.18734 14.0291 5.87591 13.2957L5.04713 10.8295C4.87248 10.3056 5.15564 9.73924 5.67958 9.56459C6.1661 9.40242 6.75448 9.63196 6.94449 10.197ZM5.4905 6.2786C6.11422 6.2786 6.64198 6.80636 6.64198 7.43008C6.64198 8.07783 6.11422 8.58156 5.4905 8.58156C4.84283 8.58156 4.33902 8.07783 4.33902 7.43008C4.33902 6.80636 4.84283 6.2786 5.4905 6.2786ZM7.40272 2.67838C7.40272 2.27975 7.75932 2.02801 8.09498 2.02801C8.36774 2.02801 8.65084 2.19342 8.72441 2.5315L9.30645 5.20826L9.96213 2.51055C10.0391 2.19409 10.3397 2.02801 10.6124 2.02801C10.8852 2.02801 11.1861 2.18785 11.2628 2.51055L11.9042 5.21819L12.4796 2.5315C12.5565 2.17335 12.8363 2.02801 13.1089 2.02801C13.4656 2.02801 13.8012 2.27975 13.8012 2.67838C13.8012 2.74135 13.797 2.80298 13.7803 2.86716L12.5635 7.54546C12.4764 7.88032 12.1859 8.02801 11.9132 8.02801C11.6404 8.02801 11.3571 7.87837 11.2628 7.54546L10.5915 5.17489L9.92017 7.54546C9.82437 7.88381 9.54255 8.02801 9.26979 8.02801C8.9971 8.02801 8.70555 7.85957 8.61948 7.52452L7.42366 2.86716C7.40721 2.80291 7.40272 2.74135 7.40272 2.67838ZM14.0027 5.01779C14.0027 2.27729 15.6221 1.98669 16.328 1.98669C16.7432 1.98669 17.1792 2.06974 17.5737 2.25656C17.8643 2.38113 17.9889 2.60947 17.9889 2.83788C17.9889 3.19079 17.719 3.54376 17.3453 3.54376C17.2622 3.54376 17.1585 3.52297 17.0754 3.48151C16.847 3.37767 16.6186 3.31542 16.3903 3.31542C16.0996 3.31542 15.3315 3.31542 15.3315 5.01779C15.3315 6.65797 16.0166 6.65797 16.3903 6.65797C16.6394 6.63724 16.8885 6.57492 17.1169 6.49188C17.1999 6.47115 17.283 6.45035 17.366 6.45035C17.7398 6.45035 18.0097 6.80333 18.0097 7.15624C18.0097 7.40538 17.8851 7.63378 17.5737 7.75829C17.1792 7.88292 16.764 7.96597 16.3487 7.98669C15.4768 7.98669 14.0027 7.5922 14.0027 5.01779Z" fill="#1A1C1F"/>
</g>
<defs>
<clipPath id="clip0_185_1155">
<rect width="20" height="20" fill="white"/>
</clipPath>
</defs>
</svg>

<svg xmlns="http://www.w3.org/2000/svg" width="20" height="20" fill="none"><g clip-path="url(#a)"><path fill="#1A1C1F" fill-rule="evenodd" d="M4.093 12.212c.408.307.545.94.198 1.4a1.5 1.5 0 0 0 2.115 2.089 1 1 0 0 1 1.223 1.583 3.5 3.5 0 0 1-4.936-4.874 1 1 0 0 1 1.4-.198m2.851-2.015q.39 1.157.773 2.316h1.12c.746 0 1.493.412 1.838 1.213q.622 1.445 1.24 2.893a1 1 0 0 1-.525 1.313c-.472.203-1.087 0-1.313-.525q-.624-1.445-1.24-2.894h-1.12a2 2 0 0 1-1.841-1.217l-.829-2.466a1 1 0 1 1 1.897-.633M5.491 6.28c.623 0 1.151.527 1.151 1.151 0 .648-.528 1.152-1.152 1.152A1.137 1.137 0 0 1 4.34 7.43c0-.624.504-1.151 1.151-1.151m1.912-3.6c0-.4.356-.651.692-.651a.63.63 0 0 1 .63.504l.581 2.676.656-2.697c.077-.317.378-.483.65-.483.273 0 .574.16.65.483l.642 2.707.576-2.686c.076-.359.356-.504.629-.504.357 0 .692.252.692.65a.7.7 0 0 1-.02.19l-1.218 4.677c-.087.335-.377.483-.65.483a.654.654 0 0 1-.65-.483l-.671-2.37-.672 2.37c-.096.339-.377.483-.65.483a.664.664 0 0 1-.65-.503L7.423 2.867a.8.8 0 0 1-.021-.189m6.6 2.339c0-2.74 1.62-3.031 2.325-3.031.415 0 .851.083 1.246.27.29.124.415.352.415.58 0 .354-.27.707-.644.707a.64.64 0 0 1-.27-.062 1.7 1.7 0 0 0-.685-.167c-.29 0-1.059 0-1.059 1.703 0 1.64.686 1.64 1.06 1.64.248-.02.498-.083.726-.166.083-.02.166-.042.249-.042.374 0 .644.353.644.706 0 .25-.125.478-.436.602-.395.125-.81.208-1.225.229-.872 0-2.346-.395-2.346-2.97" clip-rule="evenodd"/></g><defs><clipPath id="a"><path fill="#fff" d="M0 0h20v20H0z"/></clipPath></defs></svg>
